!!!SOCIAL_FUNCTION:	songs of the drum religion
!!!PDT:	1932
!!!OTL: No_102_Song_During_Which_Third_Warrior_Dances.krn
!!!REG: Wisconsin
!!!LANG: Non-Tone
!!!LING_GROUP: Algonquin
**kern
*staff1
=1-
*clefF4
*k[f#]
*M2/4
8B\L
8B\J
4B\
=2
12B\L
12B\
12B\J
4B\
=3
8A\L
8G\J
4A\
=4
12G\L
12G\
12G\J
4D\
=5
8B\L
8B\J
4B\
=6
12B\L
12B\
12B\J
4B\
=7
8A\L
8G\J
4A\
=8
12G\L
12G\
12G\J
4G\
=9||
*M3/4
8D\L
8G\J
8B\L
8G\J
8D\
8r
=10||
*M2/4
8D\L
8D\J
8D\L
8D\J
=11
8D\L
8D\J
4D\
=12
8D\L
8D\J
4D\
=13||
*M3/4
2D\
4D\
=14||
*M2/4
8G\L
8G\J
4A\
=15
12G\L
12G\
12G\J
4G\
=16||
*M3/4
8D\L
8G\J
8B\L
8G\J
4D\
=17||
*M2/4
8D\L
8D\J
8D\L
8D\J
=18
8D\L
8D\J
4D\
=19
2D\
==
*-
